Sources/FrostedUI/Resources/Icons.xcassets/flag12.imageset/flag-12.svg

<svg width="12" height="12" viewBox="0 0 12 12" fill="none" xmlns="http://www.w3.org/2000/svg" data-fui-icon="true">
  <path
    d="M4.44629 0.625C5.1717 0.625 5.85772 0.981483 6.33301 1.2168C6.89556 1.49531 7.24796 1.65234 7.55371 1.65234C7.92123 1.65232 8.31506 1.56692 8.65234 1.46191L8.79785 1.42578C9.53474 1.29002 10.3749 1.80562 10.375 2.69336V7.23145C10.3748 7.70116 10.1043 8.16695 9.61914 8.36133C9.21164 8.52465 8.39959 8.80563 7.55371 8.80566C6.82831 8.80566 6.14228 8.44917 5.66699 8.21387C5.10443 7.93535 4.75207 7.77734 4.44629 7.77734C4.04347 7.77737 3.61099 7.88075 3.25879 7.99707C3.21185 8.01258 3.16731 8.02875 3.125 8.04395V10.625C3.125 11.0392 2.78921 11.375 2.375 11.375C1.96079 11.375 1.625 11.0392 1.625 10.625V2.19922C1.62513 1.72947 1.89572 1.26278 2.38086 1.06836L2.75586 0.930664C3.19588 0.782871 3.81163 0.625023 4.44629 0.625ZM4.44629 2.125C3.97795 2.12503 3.48067 2.26492 3.125 2.39258V6.4707C3.50646 6.36639 3.96928 6.27736 4.44629 6.27734C5.1717 6.27734 5.85772 6.63383 6.33301 6.86914C6.89566 7.1477 7.24792 7.30566 7.55371 7.30566C8.02222 7.30563 8.51938 7.16479 8.875 7.03711V2.95703C8.49509 3.06098 8.03242 3.15232 7.55371 3.15234C6.8283 3.15234 6.14227 2.79586 5.66699 2.56055C5.10454 2.28209 4.75203 2.125 4.44629 2.125Z"
    fill="currentColor"
  />
</svg>

<svg xmlns="http://www.w3.org/2000/svg" width="12" height="12" fill="none" data-fui-icon="true" viewBox="0 0 12 12"><path fill="currentColor" d="M4.446.625c.726 0 1.412.356 1.887.592.563.278.915.435 1.22.435.368 0 .762-.085 1.1-.19l.145-.036c.737-.136 1.577.38 1.577 1.267v4.538c0 .47-.27.936-.756 1.13-.407.164-1.22.445-2.065.445-.726 0-1.412-.357-1.887-.592-.563-.279-.915-.437-1.22-.437-.404 0-.836.104-1.188.22l-.134.047v2.581a.75.75 0 0 1-1.5 0V2.199c0-.47.27-.936.756-1.13L2.756.93c.44-.148 1.056-.306 1.69-.306m0 1.5c-.468 0-.965.14-1.321.268V6.47a5 5 0 0 1 1.321-.194c.726 0 1.412.357 1.887.592.563.279.915.437 1.22.437.47 0 .966-.141 1.322-.269v-4.08c-.38.104-.843.195-1.321.195-.726 0-1.412-.356-1.887-.591-.562-.279-.915-.436-1.22-.436"/></svg>
